X:169
T:Amphitrian. PFD3.169
B:Playford, Dancing Master Vol 3, 2nd Ed, c1726
T:Hochstet Battle,aka. PFD.169
W:Longways for as many as will
M:6/4
L:1/8
Z:village music project. Peter Dunk 2015
Q:3/4=100
K:F
fg|a3gf2 e3dc2|d6 c3BA2|B3cB2 A3GF2|\
c4c2 d3ef2|e3fed c4A2|B4c2 d2c4|
%
B4A2 G4g2|e3dc2 d4e2|f6- f4f2|e3fed c4B2|\
A6- A4Bc|d3=ed2 d2B2d2|e3fe2 e2c2e2|
%
f3ed2 g3agf|e4d2 c4A2|B4c2 d3ef2|\
e3dc2 d4c2|B4A2 A3BG2|F6- F4|]
W:
W:Note: This tune has but one strain.
W:
W:The first two Men take Hands and lead to the wall, and both cast off into their own places again
W:and Sett; the two Women do the same thing at the same time .| Then the first Cu. lead thro' the
W:second Couple and cast up into their own places again |: The cross over into the second Couples
W:place, and lead up all backwards and forwards, then half Figure into their own places .|

